svgs/sharp-solid/trash-can-plus.svg

<svg xmlns="http://www.w3.org/2000/svg" viewBox="0 0 448 512"><!--! Font Awesome Pro 6.6.0 by @fontawesome - https://fontawesome.com License - https://fontawesome.com/license (Commercial License) Copyright 2024 Fonticons, Inc. --><path d="M304 0l16 32 128 0 0 64L0 96 0 32l128 0L144 0 304 0zM32 128l384 0 0 384L32 512l0-384zm168 72l0 80-80 0 0 48 80 0 0 80 48 0 0-80 80 0 0-48-80 0 0-80-48 0z"/></svg>

<svg xmlns="http://www.w3.org/2000/svg" viewBox="0 0 448 512"><!--! Font Awesome Pro 6.4.2 by @fontawesome - https://fontawesome.com License - https://fontawesome.com/license (Commercial License) Copyright 2023 Fonticons, Inc. --><path d="M304 0l16 32H448V96H0V32H128L144 0H304zM32 128H416V512H32V128zm168 72v80H120v48h80v80h48V328h80V280H248V200H200z"/></svg>
